packages/calcite-ui-icons/icons/find-add-path-16.svg

<?xml version="1.0" encoding="UTF-8"?><svg id="icons" xmlns="http://www.w3.org/2000/svg" viewBox="0 0 16 16"><defs><style>.cls-1{fill:none;}</style></defs><path d="M14.17603,4l-1.67603,2.05817-1.67603-2.05817h1.17603v-.5c0-.82715-.67285-1.5-1.5-1.5h-.5v-1h.5c1.37842,0,2.5,1.12109,2.5,2.5v.5h1.17603ZM7.5,1c-.82715,0-1.5.67285-1.5,1.5s.67285,1.5,1.5,1.5,1.5-.67285,1.5-1.5-.67285-1.5-1.5-1.5ZM1.5,2c-.82715,0-1.5.67285-1.5,1.5s.67285,1.5,1.5,1.5,1.5-.67285,1.5-1.5-.67285-1.5-1.5-1.5ZM14.74664,10.9751l-.46832,2.24896c.43091.26385.72168.73468.72168,1.27594,0,.82715-.67285,1.5-1.5,1.5s-1.49-.67285-1.49-1.5c0-.75861.55787-1.38074,1.28974-1.47974l.46259-2.22223c-.45288-.25842-.76233-.7403-.76233-1.29803,0-.0542.01038-.10547.01599-.1582l-1.48572-.75696c-.26917.25568-.63062.41516-1.03027.41516-.22266,0-.43225-.05188-.62244-.13928l-1.01685,1.01685c.0874.19019.13928.39978.13928.62244,0,.52002-.26648.97839-.66949,1.24756l.3125,1.26691c.75934.07324,1.34699.70734,1.34699,1.48553,0,.82715-.66285,1.5-1.49,1.5s-1.5-.67285-1.5-1.5c0-.52094.2674-.97974.67163-1.24872l-.31195-1.26544c-.76056-.07196-1.35968-.70673-1.35968-1.48584,0-.82715.67285-1.5,1.5-1.5.23907,0,.4621.0614.6629.16132l.99841-.99841c-.09991-.20081-.16132-.42383-.16132-.6629,0-.82715.67285-1.5,1.5-1.5s1.5.67285,1.5,1.5c0,.06567-.01117.1283-.01941.19177l1.46289.74506c.27136-.26965.64465-.43683,1.05652-.43683.82715,0,1.5.67285,1.5,1.5,0,.74268-.54382,1.35657-1.25336,1.4751ZM8,10h-1v1h1v-1ZM11,7h-1v1h1v-1ZM15,10v-1h-1v1h1Z"/><rect class="cls-1" width="16" height="16"/></svg>

<svg xmlns="http://www.w3.org/2000/svg" viewBox="0 0 16 16"><path d="M14.176 4L12.5 6.058 10.824 4H12v-.5c0-.827-.673-1.5-1.5-1.5H10V1h.5C11.878 1 13 2.121 13 3.5V4h1.176zM7.5 1C6.673 1 6 1.673 6 2.5S6.673 4 7.5 4 9 3.327 9 2.5 8.327 1 7.5 1zm-6 1C.673 2 0 2.673 0 3.5S.673 5 1.5 5 3 4.327 3 3.5 2.327 2 1.5 2zm13.247 8.975l-.469 2.25A1.496 1.496 0 1 1 12.01 14.5c0-.759.558-1.38 1.29-1.48l.462-2.222A1.495 1.495 0 0 1 13 9.5c0-.054.01-.105.016-.158l-1.486-.757a1.473 1.473 0 0 1-1.652.275L8.86 9.879a1.485 1.485 0 0 1-.53 1.87l.312 1.266c.76.074 1.347.708 1.347 1.486A1.493 1.493 0 1 1 7 14.5c0-.52.267-.98.672-1.249l-.312-1.265A1.497 1.497 0 0 1 6 10.5C6 9.673 6.673 9 7.5 9c.24 0 .462.061.663.161l.998-.998C9.061 7.963 9 7.739 9 7.5c0-.827.673-1.5 1.5-1.5s1.5.673 1.5 1.5c0 .066-.011.128-.02.192l1.463.745c.272-.27.645-.437 1.057-.437a1.498 1.498 0 0 1 .247 2.975zM8 10H7v1h1v-1zm3-3h-1v1h1V7zm4 3V9h-1v1h1z"/><path fill="none" d="M0 0h16v16H0z"/></svg>
